X: 55
T: Old French
T:The Rambler's Hornpipe
R:Barndance
S:Donna Hind's notebooks
Z:Nigel Gatherer
M:4/4
L:1/8
K:D
(3ABc |"D" d2 cd BdAF  | DFAd f2 ed |"A" cdef gecA |"D" dfed "A" A2
(3ABc |"D" d2 cd BdAF  | DFAd f2 ed | "A"cdef gecA |"D" d2 f2 d2 :|
|:cd    | "A"efed  c2 A2 | AEAc e2 dc | "G"BGBd gfed | "A"cAce  a2
cd    | "A"efed  c2 A2 | AEAc e2 dc |"G" BGBd gfed |"A" c2 A2 A2 :|]


